static/assets/img/icons/theme/navigation/check.svg

<svg height="24" viewBox="0 0 24 24" width="24" xmlns="http://www.w3.org/2000/svg"><g fill="none" fill-rule="evenodd"><path d="m0 0h24v24h-24z" opacity="0"/><path d="m6.26193932 17.6476484c-.35768635.4208075-.98878027.4719773-1.40958774.1142909-.42080747-.3576863-.47197724-.9887803-.1142909-1.4095877l8.50000002-10.00000002c.3633011-.42741303 1.0070408-.47243856 1.4263031-.0997609l4.5 4.00000002c.4127828.366918.4499635.9989904.0830455 1.4117731-.366918.4127828-.9989904.4499635-1.4117731.0830455l-3.7358508-3.32075624z" fill="#000" fill-rule="nonzero" transform="matrix(-1 0 0 -1 23.99999 24.000004)"/></g></svg>

<svg width="24px" height="24px" viewBox="0 0 24 24" version="1.1" xmlns="http://www.w3.org/2000/svg" xmlns:xlink="http://www.w3.org/1999/xlink">
    <title>Icon For Check</title>
    <g stroke="none" stroke-width="1" fill="none" fill-rule="evenodd">
        <polygon points="0 0 24 0 24 24 0 24" opacity="0"></polygon>
        <path d="M6.26193932,17.6476484 C5.90425297,18.0684559 5.27315905,18.1196257 4.85235158,17.7619393 C4.43154411,17.404253 4.38037434,16.773159 4.73806068,16.3523516 L13.2380607,6.35235158 C13.6013618,5.92493855 14.2451015,5.87991302 14.6643638,6.25259068 L19.1643638,10.2525907 C19.5771466,10.6195087 19.6143273,11.2515811 19.2474093,11.6643638 C18.8804913,12.0771466 18.2484189,12.1143273 17.8356362,11.7474093 L14.0997854,8.42665306 L6.26193932,17.6476484 Z" fill="#000000" fill-rule="nonzero" transform="translate(11.999995, 12.000002) rotate(-180.000000) translate(-11.999995, -12.000002) "></path>
    </g>
</svg>
